X: 291
T: Kan yangge
%%abc-version 2.0
%%abcx-abcm2ps-target-version 5.9.1 (29 Sep 2008)
%%abc-creator hum2abc beta
%%abcx-conversion-date 2013/10/02 07:52:29
%%abc-edited-by Helmut Schaffrath
%%humdrum-veritas 2981660280
%%humdrum-veritas-data 749149958
%%continueall 1
%%barnumbers 0
L: 1/16
M: 4/4
K: Bb
z2 g2 d2 d d g2 g d' b2 a g [I:setbarnb 1]| 
[M:2/4]d2 d'2 b a g a | 
f gd4d'2 | 
b a g a g a g d | 
f2 g a g2 f d | 
c2 B AG4 | 
g2 g d' b a g d | 
g2 g d' b a g2 | 
d'2 b a g a g f | 
d f d c B G B2 | 
c2 d2 g2 g d' | 
b a g c d e d2 | 
g g g d' b a c' g | 
d f c AG4 | 
z2 d'2 b2 b b | 
g a g c d e d2 | 
g g g d' b a c' g | 
d f c AG4- | 
G4z4 |]  



